icons/desktop/16/svg/xr-slash-16.svg

<svg width="16" height="16" viewBox="0 0 16 16" fill="none" xmlns="http://www.w3.org/2000/svg">
<path fill-rule="evenodd" clip-rule="evenodd" d="M0.344727 0.219994C0.637727 -0.0730059 1.11227 -0.0730059 1.40527 0.219994L15.6553 14.47C15.948 14.7629 15.9479 15.2376 15.6553 15.5305C15.5093 15.6765 15.317 15.7512 15.125 15.7512C14.933 15.7512 14.7407 15.6766 14.5947 15.5296L12.0361 12.971C11.7527 12.9515 11.4696 12.9223 11.1885 12.8831C10.5096 12.7871 9.89311 12.4432 9.45312 11.9163L8.19141 10.4016C8.06143 10.2457 7.93661 10.2457 7.80664 10.4016L6.5459 11.9163C6.10595 12.4431 5.49506 12.7861 4.82422 12.8802C4.1083 12.9821 3.42418 13.0235 2.6123 12.9885C1.14645 12.9276 0.000229048 11.7203 0 10.2415V5.52371C0.000143959 4.28382 0.811109 3.22832 1.95312 2.88796L0.344727 1.27956C0.0521275 0.986577 0.0519687 0.512884 0.344727 0.219994ZM3.28027 4.21511C3.05661 4.23509 2.83325 4.25622 2.61035 4.27956C1.97746 4.34455 1.50016 4.87985 1.5 5.52371V10.2415C1.50024 10.9032 2.02704 11.4644 2.67383 11.4915C3.38083 11.5175 3.98526 11.4838 4.61426 11.3948C4.91597 11.3518 5.19262 11.196 5.39453 10.9553L6.65625 9.4407C6.96412 9.07106 7.40623 8.84927 7.88281 8.81765L6.06543 7.00027H4.375C3.96108 7.00027 3.62513 6.66416 3.625 6.25027C3.625 5.83627 3.961 5.50027 4.375 5.50027H4.56543L3.28027 4.21511Z" fill="black"/>
<path d="M5.53711 2.56472C8.19807 2.44273 10.8845 2.5124 13.5234 2.7864C14.9361 2.93361 16.0008 4.11098 16.001 5.52566V10.2385C16.001 11.0094 15.6739 11.6927 15.1641 12.1917L14.0967 11.1253C14.3377 10.8993 14.5 10.5936 14.5 10.2376V5.52468C14.4998 4.88087 14.014 4.34368 13.3682 4.27663C11.2642 4.05963 9.12995 3.98856 7.00195 4.02956L5.53711 2.56472Z" fill="black"/>
<path d="M11.625 5.50027C12.039 5.50028 12.375 5.83627 12.375 6.25027C12.3749 6.66415 12.0389 7.00026 11.625 7.00027H9.97168L8.47168 5.50027H11.625Z" fill="black"/>
</svg>

<!-- This Source Code Form is subject to the terms of the Mozilla Public
   - License, v. 2.0. If a copy of the MPL was not distributed with this
   - file, You can obtain one at http://mozilla.org/MPL/2.0/. -->
<svg xmlns="http://www.w3.org/2000/svg" width="16" height="16" fill="context-fill" fill-opacity="context-fill-opacity" viewBox="0 0 16 16">
    <path fill-rule="evenodd" d="M.345.22a.75.75 0 0 1 1.06 0l14.25 14.25a.75.75 0 0 1-1.06 1.06l-2.559-2.559q-.425-.03-.848-.088a2.76 2.76 0 0 1-1.735-.967l-1.262-1.514c-.13-.156-.254-.156-.384 0l-1.261 1.514c-.44.527-1.05.87-1.722.964-.716.102-1.4.143-2.212.108A2.73 2.73 0 0 1 0 10.243V5.524c0-1.24.811-2.296 1.953-2.636L.345 1.28a.75.75 0 0 1 0-1.06M3.28 4.215q-.335.03-.67.065c-.633.065-1.11.6-1.11 1.244v4.718c0 .661.527 1.222 1.174 1.25a10.6 10.6 0 0 0 1.94-.097 1.25 1.25 0 0 0 .78-.44l1.262-1.514a1.74 1.74 0 0 1 1.227-.623L6.065 7h-1.69a.75.75 0 0 1 0-1.5h.19z" clip-rule="evenodd" />
    <path d="M5.537 2.565a54 54 0 0 1 7.986.221 2.75 2.75 0 0 1 2.478 2.74v4.713c0 .77-.327 1.454-.837 1.953l-1.067-1.067c.24-.226.403-.531.403-.887V5.525c0-.644-.486-1.181-1.132-1.248a52 52 0 0 0-6.366-.247z" />
    <path d="M11.625 5.5a.75.75 0 0 1 0 1.5H9.972l-1.5-1.5z" />
</svg>
